icons/terraform-logo.svg

<svg width="256" height="256" viewBox="0 0 256 256" fill="none" xmlns="http://www.w3.org/2000/svg">
<rect width="256" height="256" rx="60" fill="#F4F2ED"/>
<path fill-rule="evenodd" clip-rule="evenodd" d="M153.497 228V164.881L102.068 133.309V196.427L153.497 228ZM153.497 157.983L102.068 126.411V63.2666L153.497 94.8387V157.983Z" fill="#5C4EE5"/>
<path fill-rule="evenodd" clip-rule="evenodd" d="M210.613 126.385V63.2407L159.16 94.8128V157.957L210.613 126.385Z" fill="#4040B2"/>
<path fill-rule="evenodd" clip-rule="evenodd" d="M96.4291 122.717V59.5722L45 28V91.1442L96.4291 122.717Z" fill="#5C4EE5"/>
</svg>

<svg xmlns="http://www.w3.org/2000/svg" width="256" height="256" viewBox="0 0 256 256"><g fill="none"><rect width="256" height="256" fill="#242938" rx="60"/><path fill="#5C4EE5" fill-rule="evenodd" d="M153.497 228v-63.119l-51.429-31.572v63.118zm0-70.017l-51.429-31.572V63.267l51.429 31.572z" clip-rule="evenodd"/><path fill="#4040B2" fill-rule="evenodd" d="M210.613 126.385V63.241L159.16 94.813v63.144z" clip-rule="evenodd"/><path fill="#5C4EE5" fill-rule="evenodd" d="M96.43 122.717V59.572L45 28v63.144z" clip-rule="evenodd"/></g></svg>
